X: 1
T: Iain Boyd
C: Nan Main
N: Suggested tune for The Seagull
R: jig
Z: 2019 John Chambers <jc:trillian.mit.edu>
M: 6/8
L: 1/8
K: G
B |\
"G"d2d Bcd | "C"e2g g3 | "G"d2d Bcd | "D7"c2A D3 |\
"G"d2d Bcd | "Am"e2a c'2e | "D7"f2d- def | "G"g3 G2 |]
g/a/ |\
"G"b2b gab | "D"a2f d2e/f/ | "Em"g2g efg | "Bm"f2d B2c/d/ |\
"Am"e2e "D7"FAe | "G"d2B b2g | "D7"e2F dcA | "G"G3 g2 |]
